resources/WikimediaUI-icons-SVGs/userAdd-rtl.svg

<?xml version="1.0" encoding="UTF-8"?>
<svg xmlns="http://www.w3.org/2000/svg" width="20" height="20" viewBox="0 0 20 20">
	<title>
		add user
	</title>
	<path d="m6 0v4h4v2h-4v4h-2v-4h-4v-2h4v-4zm5.5 7c1.93 0 3.5 1.57 3.5 3.5s-1.57 3.5-3.5 3.5-3.5-1.57-3.5-3.5 1.57-3.5 3.5-3.5zm0.5 8c4.6 0 7 2.69 7 4.23v0.77h-14v-0.77c0-1.54 2.4-4.23 7-4.23z"/>
</svg>

<?xml version="1.0" encoding="UTF-8"?>
<svg xmlns="http://www.w3.org/2000/svg" width="20" height="20" viewBox="0 0 20 20">
	<title>
		add user
	</title>
	<path d="M6 0v4h4v2H6v4H4V6H0V4h4V0zm5.5 7c1.93 0 3.5 1.57 3.5 3.5S13.43 14 11.5 14 8 12.43 8 10.5 9.57 7 11.5 7zm.5 8c4.6 0 7 2.69 7 4.23V20H5v-.77C5 17.69 7.4 15 12 15z"/>
</svg>
